Example cht and cie files/LaserSoft Advanced Target/R250715.cie
CGATS.17

DESCRIPTOR "For Fuji Crystal Archive Supreme, L* a* b* (light D50, viewing angle 2), M0"
ORIGINATOR "LaserSoft Imaging AG"
CREATED "2025-07-28T09:19:32"
SPECTRAL_BANDS "41"
SPECTRAL_START_NM "380.000000"
SPECTRAL_END_NM "780.000000"

NUMBER_OF_FIELDS 49
BEGIN_DATA_FORMAT
SAMPLE_ID SAMPLE_LOC LAB_L LAB_A LAB_B XYZ_X XYZ_Y XYZ_Z SPEC_380 SPEC_390 SPEC_400 SPEC_410 SPEC_420 SPEC_430 SPEC_440 SPEC_450 SPEC_460 SPEC_470 SPEC_480 SPEC_490 SPEC_500 SPEC_510 SPEC_520 SPEC_530 SPEC_540 SPEC_550 SPEC_560 SPEC_570 SPEC_580 SPEC_590 SPEC_600 SPEC_610 SPEC_620 SPEC_630 SPEC_640 SPEC_650 SPEC_660 SPEC_670 SPEC_680 SPEC_690 SPEC_700 SPEC_710 SPEC_720 SPEC_730 SPEC_740 SPEC_750 SPEC_760 SPEC_770 SPEC_780 
END_DATA_FORMAT

NUMBER_OF_SETS 864
BEGIN_DATA
1 "A1" 24.13670 11.13830 4.222330 4.816670 4.142330 2.830330 2.586740 2.946800 3.159710 3.673270 3.812950 3.357540 2.936210 2.678370 2.900880 3.625590 4.586570 5.268570 5.165440 4.399260 3.571770 2.974260 2.542800 2.313860 2.510130 3.289200 4.574760 5.875490 6.469410 6.441850 6.363580 6.274040 6.106330 6.102580 6.638990 8.054290 10.61580 14.40900 19.17120 24.39350 29.59710 34.57350 39.21150 43.39290 46.92210 49.63270 51.41570 
2 "A2" 18.74800 11.59600 3.288330 3.241330 2.688000 1.872670 1.986270 2.319740 2.401640 2.639500 2.615600 2.233680 1.914620 1.733840 1.888960 2.400690 3.103060 3.581330 3.439860 2.812630 2.192650 1.776370 1.497740 1.351780 1.484900 2.024200 2.964280 3.963530 4.427600 4.418150 4.370530 4.330550 4.227790 4.236100 4.665130 5.844890 8.032510 11.38400 15.72180 20.60890 25.58370 30.42020 35.00390 39.16850 42.72190 45.42110 47.28090 
3 "A3" 14.24100 9.592670 3.158330 2.114330 1.771670 1.212330 1.589830 1.756780 1.740080 1.809470 1.703040 1.411990 1.202370 1.087850 1.194340 1.546870 2.065770 2.452890 2.370100 1.910940 1.461290 1.175510 0.987157 0.889075 0.969960 1.330430 1.974960 2.646820 2.898390 2.824930 2.772770 2.745020 2.684100 2.705150 3.037640 3.949430 5.718070 8.538730 12.35880 16.82520 21.49790 26.16470 30.66590 34.81260 38.38570 41.15180 43.03940 
4 "A4" 11.98170 8.321330 2.346670 1.653330 1.403670 0.997667 1.272130 1.497850 1.487910 1.517730 1.405460 1.157240 0.985147 0.894306 0.976087 1.270700 1.709820 2.037730 1.965470 1.565270 1.186440 0.949208 0.791818 0.712638 0.769059 1.054920 1.566580 2.088470 2.253730 2.154960 2.097260 2.087240 2.038620 2.063470 2.346860 3.113670 4.651180 7.188580 10.70410 14.91120 19.39590 23.94440 28.36800 32.48960 36.06350 38.82740 40.70920 
5 "A5" 41.74070 15.45500 5.161670 14.24770 12.33330 8.675000 5.094020 5.815840 6.855820 9.190970 10.92910 10.63330 9.862230 9.226790 9.622220 10.94790 12.51860 13.51150 13.28360 12.00070 10.52250 9.347820 8.436800 7.988150 8.559220 10.37540 13.18600 16.17180 18.10640 18.83470 19.08990 19.08080 18.86920 18.95070 19.86580 22.00210 25.57150 30.34630 35.72790 41.10830 46.02510 50.35460 54.15100 57.38490 59.98050 61.83930 62.96690 
6 "A6" 37.87930 14.86330 5.238000 11.63870 10.02070 6.947670 4.361660 5.074150 5.878100 7.665850 8.881470 8.462560 7.759090 7.228640 7.593010 8.800580 10.27390 11.22110 11.02780 9.852980 8.512060 7.466040 6.661480 6.268710 6.746580 8.320340 10.79460 13.40300 15.00970 15.51700 15.66010 15.60420 15.37260 15.41510 16.24230 18.26730 21.70120 26.37290 31.74840 37.22590 42.30140 46.84840 50.90120 54.38680 57.20960 59.27690 60.47380 
7 "A7" 33.48870 16.13170 4.523000 9.317330 7.765000 5.441670 3.712770 4.415250 5.020780 6.339830 7.152670 6.679040 6.038130 5.582720 5.888920 6.912940 8.162430 8.927180 8.644320 7.516460 6.320340 5.430650 4.769280 4.453720 4.852040 6.189940 8.364950 10.73600 12.23760 12.73660 12.89740 12.86120 12.66570 12.70470 13.47000 15.37240 18.64310 23.15760 28.43950 33.89210 39.01930 43.67370 47.85610 51.49430 54.46910 56.62460 58.01870 
8 "A8" 29.02000 14.67870 5.201000 7.015000 5.845670 3.918000 3.032390 3.602060 3.997330 4.822740 5.215010 4.734730 4.200720 3.862160 4.128500 4.997550 6.116660 6.853330 6.684090 5.756350 4.757930 4.031240 3.498100 3.234120 3.541040 4.606050 6.364020 8.267040 9.381020 9.659550 9.705870 9.645180 9.456030 9.465860 10.13370 11.84500 14.82900 19.07770 24.15660 29.51270 34.67530 39.44380 43.78250 47.61520 50.79700 53.14460 54.62650 
9 "A9" 71.31900 6.347670 3.343330 43.24330 42.65330 32.90470 12.83350 12.24050 16.00550 26.13810 36.93920 40.34890 40.08230 38.58560 38.94680 40.73920 42.55060 43.79990 43.95180 42.92700 41.40410 39.94400 38.64350 37.94200 38.64870 40.82840 43.82750 46.57860 48.12660 48.70270 48.96780 49.08230 49.15650 49.64560 50.84800 53.06610 56.47680 60.64320 64.87410 68.72250 71.90180 74.49460 76.66510 78.43150 79.75230 80.68450 81.16430 
10 "A10" 66.08730 7.075330 2.988000 36.26000 35.43670 27.42930 11.24070 11.10530 14.31440 22.69650 31.26930 33.64070 33.14700 31.82250 32.23710 34.04490 35.93600 37.20220 37.23550 36.01520 34.32810 32.74950 31.35670 30.60810 31.30040 33.53300 36.62310 39.44370 40.96910 41.42120 41.54990 41.51670 41.40730 41.72670 42.85700 45.14350 48.76160 53.26850 57.97710 62.34020 66.02090 69.09170 71.66370 73.76730 75.36760 76.47950 77.09710 
11 "A11" 60.46200 7.355670 3.319670 29.50500 28.63900 21.89330 9.576440 9.850320 12.47050 19.02530 25.36690 26.75130 26.08630 24.95880 25.44400 27.27370 29.28060 30.64870 30.69920 29.44170 27.72490 26.13930 24.74660 23.99050 24.64580 26.80740 29.83380 32.57350 33.94880 34.22340 34.19960 34.02360 33.76770 33.94350 34.99810 37.31950 41.05960 45.84990 50.94820 55.81910 60.02730 63.58510 66.60930 69.10240 71.04140 72.40410 73.16430 
12 "A12" 55.75830 8.047330 3.123330 24.65430 23.67270 18.09300 8.422700 8.803040 11.02400 16.37180 21.29340 22.09750 21.34980 20.35160 20.84430 22.60680 24.57850 25.90180 25.86820 24.54980 22.81090 21.23720 19.89420 19.15340 19.76770 21.86120 24.81820 27.51050 28.83400 29.03690 28.95860 28.74140 28.42500 28.51670 29.51830 31.83130 35.59750 40.50780 45.86100 51.03360 55.61220 59.56200 62.92350 65.72010 67.94480 69.50130 70.40110 
13 "A13" 25.01370 8.097670 9.396330 4.875000 4.420000 2.378330 2.255190 2.639120 2.764230 3.069120 3.051260 2.626420 2.273920 2.081720 2.309490 3.016190 4.070110 5.003790 5.238860 4.729360 4.018010 3.449370 2.997700 2.745780 2.946110 3.744550 5.003050 6.180820 6.590140 6.429350 6.274080 6.145400 5.955050 5.935760 6.452690 7.830430 10.33480 14.05920 18.74460 23.86320 28.95680 33.82830 38.35700 42.43040 45.86810 48.45480 50.14850 
14 "A14" 19.42830 8.599670 9.718330 3.238000 2.849330 1.398330 1.772150 1.917140 1.891980 1.948680 1.813680 1.494360 1.280000 1.162770 1.296780 1.752770 2.483460 3.174710 3.361320 2.988410 2.476010 2.090160 1.792190 1.631630 1.770950 2.338700 3.277860 4.182180 4.501030 4.378210 4.262060 4.191600 4.073170 4.069230 4.487910 5.622370 7.747920 11.00070 15.21250 19.96380 24.78960 29.46210 33.88940 37.89690 41.31830 43.93010 45.63810 
15 "A15" 14.67070 8.050000 5.566670 2.128330 1.848330 1.092670 1.365100 1.621870 1.599230 1.606460 1.481290 1.217670 1.039430 0.949776 1.044180 1.372380 1.902020 2.359560 2.391520 2.016760 1.597270 1.310030 1.111250 1.000120 1.087540 1.459880 2.104680 2.738900 2.928180 2.813590 2.734860 2.699390 2.630840 2.640770 2.974540 3.866140 5.591000 8.361980 12.09890 16.48340 21.07810 25.63490 30.02780 34.07300 37.54470 40.22520 42.03810 
16 "A16" 14.15530 7.691000 5.375330 2.012670 1.757000 1.045000 1.258880 1.568120 1.536340 1.534840 1.415120 1.160410 0.991503 0.906506 0.994917 1.313830 1.825450 2.269280 2.302500 1.936770 1.530630 1.255970 1.058200 0.956820 1.038200 1.386890 2.001150 2.599850 2.767710 2.642860 2.563110 2.532770 2.469450 2.482800 2.795150 3.653120 5.332180 8.034360 11.70390 16.03560 20.58530 25.11950 29.50300 33.56000 37.03720 39.71350 41.56190 
17 "A17" 43.24830 15.16870 15.37970 15.27600 13.32470 6.739670 4.580980 5.139820 5.821430 7.336500 8.250520 7.726550 7.037350 6.584890 7.064970 8.509030 10.46980 12.15850 12.74680 12.14280 11.07440 10.10460 9.284360 8.908900 9.572390 11.53530 14.54540 17.76940 19.93600 20.83610 21.20340 21.24530 21.07720 21.19240 22.12970 24.28900 27.83390 32.50430 37.69910 42.80400 47.38930 51.38400 54.82620 57.75420 60.07550 61.69280 62.63510 
18 "A18" 38.93770 16.38370 16.11570 12.51930 10.62300 5.010000 3.752700 4.351650 4.780650 5.763770 6.233370 5.673690 5.076730 4.718590 5.117210 6.328950 8.029480 9.517470 10.01200 9.441370 8.483200 7.639710 6.945220 6.632230 7.208730 8.936530 11.66320 14.65850 16.70690 17.56760 17.92110 17.97130 17.80800 17.90960 18.77770 20.84470 24.28030 28.86130 34.01910 39.15100 43.81600 47.92120 51.50320 54.56910 57.00630 58.72450 59.79990 
19 "A19" 33.61230 16.41230 13.46530 9.417330 7.823330 3.862000 3.222610 3.721300 4.022510 4.697950 4.951270 4.416510 3.896350 3.596010 3.913080 4.894560 6.274040 7.432520 7.681310 7.026960 6.117350 5.378290 4.796360 4.529150 4.966600 6.353350 8.604750 11.10580 12.76570 13.39520 13.62580 13.62790 13.44390 13.50080 14.28120 16.19200 19.42920 23.85760 28.97620 34.20890 39.07170 43.43630 47.30330 50.64790 53.35870 55.32020 56.46860 
20 "A20" 29.11200 14.71500 13.20330 7.059330 5.882000 2.777670 2.554970 2.999330 3.149120 3.543600 3.581030 3.101450 2.693250 2.471390 2.721260 3.521920 4.688150 5.704650 5.951950 5.396560 4.628960 4.016920 3.540440 3.310640 3.642600 4.747160 6.559070 8.529350 9.726710 10.06370 10.14160 10.09640 9.910070 9.923320 10.59230 12.30460 15.27460 19.45770 24.41640 29.60640 34.53210 39.04800 43.12830 46.68670 49.61940 51.76090 53.06760 
21 "A21" 71.02100 5.680000 5.724670 42.58500 42.21830 31.00130 12.28190 11.94820 15.51080 24.92320 34.76100 37.68760 37.31550 35.92480 36.41520 38.42830 40.61450 42.31530 42.90730 42.23750 40.96400 39.65140 38.43840 37.77470 38.47580 40.62050 43.55340 46.22810 47.70430 48.20150 48.43710 48.51800 48.55390 49.02000 50.21280 52.39520 55.76060 59.89150 64.07220 67.85530 70.99710 73.55720 75.67590 77.42530 78.74460 79.63540 80.13230 
22 "A22" 65.83930 6.425670 6.028000 35.74500 35.11700 25.42070 10.68490 10.71090 13.71590 21.31400 28.89160 30.79500 30.22410 29.02290 29.58120 31.60990 33.89890 35.65340 36.17530 35.35750 33.93680 32.51800 31.21840 30.51960 31.23320 33.44660 36.50210 39.28640 40.75670 41.16370 41.27410 41.22540 41.09420 41.39860 42.51780 44.78120 48.35270 52.83270 57.46610 61.76650 65.43120 68.43230 70.94570 73.03020 74.61180 75.68680 76.35110 
23 "A23" 60.77600 6.717000 7.106000 29.69370 28.99400 20.27630 9.147230 9.429300 11.86170 17.79200 23.35960 24.38120 23.65710 22.64150 23.26180 25.30310 27.71390 29.60440 30.18110 29.37420 27.94500 26.51990 25.22690 24.52270 25.20430 27.38110 30.40790 33.14900 34.52540 34.80310 34.79300 34.63100 34.39340 34.56900 35.62890 37.92920 41.63970 46.35730 51.38100 56.15860 60.28070 63.74590 66.67110 69.10710 70.96440 72.25390 73.01520 
24 "A24" 55.93470 7.144000 6.832670 24.62070 23.84770 16.60270 7.832080 8.385790 10.40200 15.14870 19.40250 19.91230 19.13890 18.24970 18.85290 20.79090 23.10370 24.88120 25.34010 24.42520 22.94450 21.52270 20.24830 19.54640 20.17600 22.25850 25.18700 27.82960 29.09170 29.24990 29.14330 28.90880 28.58430 28.66810 29.66830 31.96920 35.71570 40.58700 45.88930 51.00450 55.54190 59.41240 62.72800 65.51390 67.68750 69.20170 70.03240 
25 "A25" 93.54830 2.233670 -0.932000 82.37000 84.22570 70.53830 21.82380 17.69940 24.05910 45.30600 73.61210 87.22150 89.98640 87.50690 86.63490 86.53370 85.39560 84.37110 83.78250 83.30130 83.09320 83.13680 83.23130 83.25980 83.31720 83.56570 84.03050 84.52460 84.87180 85.38390 86.22660 87.31220 88.68430 90.41030 92.00860 93.53020 95.44950 97.53100 99.29440 100.7330 101.8360 102.7510 103.5660 104.3050 104.8540 105.3190 105.7820 
26 "A26" 93.51800 2.319670 -0.845333 82.34770 84.15700 70.38500 21.70150 17.70560 24.04200 45.25230 73.46180 87.01930 89.77500 87.30740 86.43600 86.33640 85.22900 84.22250 83.65490 83.16950 82.96410 83.01470 83.09480 83.13560 83.21970 83.48020 83.98680 84.52040 84.90620 85.43640 86.29790 87.41360 88.79340 90.53370 92.13380 93.63910 95.54000 97.58430 99.30300 100.7220 101.8030 102.6940 103.5220 104.2530 104.7940 105.2320 105.6980 
27 "A27" 93.52370 2.244000 -0.563000 82.32070 84.16970 70.08130 21.62600 17.60320 23.92800 45.06440 73.14180 86.60800 89.31370 86.84370 86.01130 85.98500 84.95950 84.03060 83.52270 83.10770 82.94840 83.03700 83.15120 83.19690 83.28870 83.53960 84.03970 84.56100 84.92520 85.45220 86.31460 87.42580 88.80550 90.52190 92.13090 93.63830 95.51180 97.55770 99.26610 100.6750 101.7720 102.6660 103.4590 104.1770 104.7450 105.1970 105.5960 
28 "A28" 93.47330 2.254670 -0.470000 82.21330 84.05330 69.88170 21.55600 17.68040 23.97210 45.01020 72.92770 86.31210 89.01070 86.57250 85.75530 85.75550 84.76280 83.86700 83.38540 82.99060 82.81650 82.89990 83.01020 83.06440 83.16060 83.41940 83.92930 84.47300 84.85770 85.40100 86.25570 87.35590 88.73870 90.46360 92.05840 93.53950 95.42760 97.46190 99.16670 100.5670 101.6540 102.5440 103.3430 104.0740 104.6050 105.0520 105.5310 
29 "A29" 93.44430 2.178000 -0.683333 82.10800 83.98630 70.06300 21.67250 17.64540 23.95580 45.07600 73.15150 86.60060 89.31170 86.84330 85.99920 85.95450 84.89190 83.96150 83.43640 83.01710 82.84940 82.91610 83.01270 83.03600 83.11120 83.34880 83.81920 84.31750 84.68100 85.18000 86.00370 87.08980 88.44010 90.13820 91.72170 93.23000 95.13760 97.21280 98.93870 100.3680 101.4710 102.3890 103.1900 103.9210 104.4710 104.9420 105.3220 
30 "A30" 93.47270 2.277000 -0.857667 82.22300 84.05130 70.31100 21.74690 17.68700 24.02510 45.21970 73.40410 86.93550 89.68580 87.20990 86.34030 86.25320 85.13260 84.11380 83.55410 83.07650 82.87180 82.93950 83.02690 83.05700 83.13230 83.38320 83.87750 84.40950 84.78010 85.29760 86.12530 87.22020 88.57420 90.28280 91.87450 93.37850 95.28580 97.36490 99.11460 100.5410 101.6280 102.5430 103.3640 104.0940 104.6430 105.1200 105.5330 
31 "A31" 26.27370 1.508000 3.003670 4.783330 4.840000 3.520330 2.670000 3.167130 3.495530 4.176140 4.465800 4.025800 3.583030 3.317240 3.609500 4.508260 5.740620 6.723050 6.840700 6.121810 5.195710 4.444910 3.835190 3.454340 3.573370 4.280540 5.313550 6.041070 5.946990 5.464690 5.163760 4.984470 4.783700 4.748740 5.194920 6.440340 8.771000 12.31930 16.91020 22.08230 27.34000 32.47910 37.36260 41.83930 45.68000 48.60790 50.58590 
32 "A32" 27.49800 1.532000 3.367000 5.209670 5.272670 3.791000 2.754860 3.320070 3.669640 4.433420 4.785650 4.339250 3.865500 3.584910 3.899740 4.852210 6.159230 7.198320 7.339330 6.609810 5.650030 4.856850 4.205820 3.799060 3.930250 4.681780 5.779390 6.556280 6.470370 5.976710 5.652420 5.444540 5.232770 5.191740 5.663810 6.979030 9.400760 13.07000 17.78140 23.02750 28.34610 33.51200 38.40320 42.85900 46.67640 49.60800 51.59660 
33 "A33" 69.40730 2.397000 1.948330 39.24170 39.91300 31.64700 12.20780 11.85240 15.48460 25.17280 35.45150 38.65780 38.39510 36.98820 37.39510 39.22890 41.13610 42.49110 42.74870 41.80490 40.31590 38.82690 37.42290 36.53190 36.91160 38.58000 40.82350 42.54670 42.96860 42.64980 42.31670 42.00840 41.73040 41.93930 43.03830 45.34370 49.03340 53.66910 58.51140 63.04670 66.89910 70.08360 72.77860 75.00960 76.68660 77.88310 78.56160 
34 "A34" 70.68870 2.162000 2.238670 40.94570 41.73670 32.91770 12.65490 12.09360 15.86570 25.94490 36.73490 40.18080 39.96920 38.53200 38.93700 40.79070 42.70290 44.09640 44.42440 43.55650 42.13970 40.70560 39.33750 38.46800 38.83030 40.45260 42.63950 44.30810 44.70890 44.39180 44.07360 43.78540 43.53990 43.79290 44.90440 47.18270 50.83460 55.41950 60.17420 64.59710 68.33540 71.43120 74.04260 76.19800 77.81000 78.97060 79.66750 
35 "A35" 25.92000 23.39630 20.79700 6.557330 4.719670 1.407330 1.785050 2.004820 1.986730 2.008210 1.838200 1.480390 1.251140 1.136880 1.273700 1.743280 2.517940 3.282640 3.544100 3.210200 2.715120 2.341480 2.067790 1.971910 2.279130 3.251360 5.046550 7.404700 9.369640 10.42140 10.96700 11.19700 11.17150 11.28490 12.02110 13.76170 16.71380 20.75040 25.41430 30.17610 34.56260 38.52140 42.00420 44.99240 47.40180 49.15360 50.20200 
36 "A36" 24.39230 16.63700 15.02270 5.353000 4.222330 1.681000 1.826790 2.205110 2.222400 2.324720 2.197380 1.815270 1.544680 1.405980 1.567010 2.107780 2.959720 3.756410 3.978770 3.566560 2.996810 2.563340 2.237800 2.087700 2.349240 3.208120 4.707230 6.455790 7.598190 7.985150 8.120890 8.127160 7.996580 8.020410 8.637210 10.18690 12.91950 16.82750 21.52570 26.49980 31.28570 35.68640 39.69540 43.22470 46.11120 48.25020 49.58190 
37 "B1" 21.87570 24.02570 6.158330 5.067330 3.481000 2.134330 2.038210 2.677240 2.791760 3.129640 3.161670 2.716910 2.333450 2.093870 2.226960 2.725950 3.327810 3.615910 3.283470 2.544150 1.903870 1.525070 1.291970 1.204660 1.399430 2.086200 3.457410 5.371590 7.018190 7.899500 8.378070 8.590930 8.562940 8.664880 9.353910 11.00560 13.85650 17.87520 22.68220 27.73930 32.58150 37.04790 41.08010 44.62520 47.57830 49.77470 51.14220 
38 "B2" 18.64570 21.09570 7.466000 3.818330 2.664670 1.472670 1.610150 2.118650 2.132550 2.256190 2.169490 1.802350 1.530600 1.377670 1.483110 1.882480 2.419150 2.736000 2.543930 1.992130 1.493570 1.193530 1.013830 0.942262 1.092440 1.630830 2.711340 4.189880 5.379130 5.941270 6.230610 6.355340 6.310260 6.374380 6.951840 8.373290 10.91950 14.61120 19.14250 24.03250 28.80100 33.25810 37.34870 40.97680 44.00440 46.24930 47.76970 
39 "B3" 16.05500 17.56000 6.864670 2.913330 2.110330 1.170330 1.437830 1.836250 1.776140 1.818660 1.701920 1.395370 1.180470 1.067580 1.152680 1.490960 1.968020 2.292920 2.173150 1.718260 1.292380 1.033810 0.873326 0.810568 0.923250 1.357080 2.216110 3.335260 4.132630 4.418150 4.554310 4.618220 4.553360 4.600730 5.070230 6.271360 8.499090 11.83500 16.07110 20.75700 25.44990 29.91310 34.07390 37.80670 40.95070 43.32100 44.95310 
40 "B4" 15.49200 16.71470 7.251000 2.733670 2.001000 1.074330 1.286250 1.702620 1.651060 1.671220 1.561330 1.261070 1.068000 0.964188 1.048160 1.365430 1.824610 2.163860 2.076940 1.655700 1.249260 1.003600 0.849581 0.783720 0.893508 1.307770 2.125010 3.172990 3.891750 4.127890 4.232690 4.281130 4.216490 4.259170 4.709160 5.866120 8.011750 11.25170 15.39640 20.00830 24.63730 29.07180 33.20350 36.93880 40.07870 42.44040 44.01410 
41 "B5" 42.12000 27.83500 9.118000 16.63630 12.57830 7.796330 4.860190 5.722290 6.624710 8.718700 10.20640 9.785830 8.984790 8.341780 8.655760 9.816850 11.13270 11.82980 11.35220 9.953040 8.506270 7.448890 6.695580 6.433150 7.169760 9.293980 12.88500 17.48480 21.63830 24.32870 25.94880 26.80740 27.16070 27.65680 28.83360 31.10140 34.66460 39.18630 43.99810 48.56290 52.56190 55.93150 58.76650 61.13680 62.99230 64.25310 64.95190 
42 "B6" 37.83070 28.14800 8.156670 13.58530 9.993670 6.258330 4.191960 5.019770 5.730140 7.361700 8.415730 7.920300 7.187850 6.628390 6.895200 7.900310 9.033210 9.580080 9.058150 7.735170 6.430990 5.517020 4.888500 4.663990 5.261030 7.049590 10.16790 14.23670 17.90990 20.23580 21.61060 22.30430 22.54820 22.93430 24.02160 26.23780 29.78510 34.35890 39.34030 44.15870 48.44560 52.11590 55.26040 57.90520 59.97730 61.45530 62.29000 
43 "B7" 33.13430 27.38400 8.549330 10.55330 7.599670 4.558000 3.401770 4.217540 4.665960 5.723290 6.294280 5.749510 5.121670 4.686420 4.924510 5.777350 6.780900 7.298320 6.864900 5.741450 4.657440 3.923640 3.430380 3.255290 3.715100 5.138360 7.715610 11.13120 14.17560 16.03500 17.09550 17.60530 17.71780 17.99200 18.96640 21.05830 24.50310 29.03570 34.11030 39.13500 43.67960 47.65100 51.10350 54.05100 56.39440 58.04820 59.04190 
44 "B8" 27.90200 26.07230 7.784000 7.699000 5.421670 3.230670 2.695150 3.454040 3.737590 4.356980 4.591760 4.077270 3.577050 3.251740 3.435530 4.112610 4.920740 5.321540 4.940190 4.011520 3.147390 2.601540 2.251140 2.116600 2.436950 3.484840 5.452110 8.134280 10.50410 11.87610 12.63900 12.98770 13.01610 13.19200 14.03110 15.93470 19.14210 23.50400 28.50760 33.59250 38.30210 42.52150 46.25860 49.46890 52.06690 53.95160 55.10850 
45 "B9" 71.00100 10.97800 5.195330 44.35800 42.18900 31.32130 12.40890 12.15500 15.72640 25.34800 35.49410 38.49980 38.11400 36.61730 36.98090 38.77280 40.59030 41.81720 41.89020 40.73950 39.15150 37.68110 36.42800 35.89570 36.92630 39.67300 43.54050 47.52070 50.42910 52.10850 53.13900 53.78460 54.26100 55.05800 56.36900 58.43620 61.49120 65.12210 68.68740 71.83020 74.38950 76.43730 78.13800 79.54610 80.56010 81.30580 81.72380 
46 "B10" 65.35030 11.87700 4.425000 36.75200 34.49130 25.85300 10.91270 10.96320 14.00940 21.86860 29.80600 31.83640 31.25150 29.92600 30.32780 32.08970 33.91380 35.07160 34.94790 33.57760 31.80130 30.20990 28.87110 28.26500 29.22890 31.92670 35.78100 39.71710 42.47750 43.89950 44.68310 45.08230 45.29040 45.83400 47.06080 49.29150 52.69250 56.85680 61.09250 64.95400 68.16270 70.77540 72.96140 74.72970 76.05630 77.01130 77.53770 
47 "B11" 60.88770 12.44030 5.372330 31.36070 29.12070 21.22630 9.412980 9.835840 12.40080 18.77370 24.83850 26.03390 25.30170 24.15250 24.61840 26.42490 28.40170 29.70650 29.67780 28.34930 26.59900 25.02610 23.72030 23.11340 24.02110 26.64520 30.43100 34.28980 36.92290 38.19520 38.82660 39.08830 39.13880 39.53860 40.70060 42.98520 46.57210 51.02390 55.66930 59.97880 63.63520 66.64340 69.18330 71.25840 72.80720 73.93370 74.57460 
48 "B12" 55.53700 13.54500 5.572000 25.72830 23.45430 16.84830 8.084440 8.597510 10.66540 15.61750 20.07450 20.63920 19.84220 18.85860 19.32810 21.04780 22.98180 24.24620 24.15200 22.79560 21.06860 19.55380 18.30960 17.73550 18.57120 21.04940 24.68160 28.42470 30.94910 32.09210 32.60880 32.76320 32.70580 32.98570 34.08540 36.39780 40.07170 44.74320 49.71690 54.43400 58.50910 61.94140 64.84720 67.24170 69.08600 70.37590 71.10800 
49 "B13" 23.93430 16.48800 15.73170 5.176330 4.080000 1.546330 1.779780 2.153330 2.106660 2.159190 2.009960 1.645890 1.398150 1.274490 1.417890 1.928030 2.749990 3.533220 3.781010 3.418270 2.881980 2.468190 2.164090 2.022650 2.272440 3.105900 4.563770 6.263560 7.378110 7.736990 7.863730 7.874860 7.740270 7.772860 8.375520 9.909740 12.61240 16.49080 21.17570 26.13890 30.91580 35.33570 39.36690 42.90480 45.82500 47.98350 49.38940 
50 "B14" 19.13430 16.51330 11.99270 3.654670 2.778670 1.183000 1.504570 1.821000 1.756740 1.749690 1.602060 1.307940 1.109670 1.010780 1.113520 1.479070 2.067450 2.594270 2.669790 2.296340 1.850210 1.539350 1.331550 1.237910 1.399120 1.976770 3.052220 4.362680 5.238390 5.514970 5.625730 5.655370 5.565200 5.604050 6.114950 7.428200 9.813430 13.33260 17.70050 22.46300 27.14910 31.55040 35.62010 39.23940 42.24820 44.49580 45.96430 
51 "B15" 17.57530 15.23730 11.25130 3.157330 2.425000 1.046670 1.365800 1.702370 1.598720 1.572060 1.418660 1.146230 0.974738 0.893357 0.978542 1.303970 1.831920 2.320870 2.398290 2.056260 1.648190 1.370350 1.178220 1.093460 1.233290 1.739880 2.685050 3.820300 4.531600 4.719920 4.782840 4.798730 4.711090 4.739100 5.203370 6.421250 8.646070 11.96900 16.17790 20.81910 25.42690 29.81480 33.88610 37.52630 40.56960 42.87160 44.34750 
52 "B16" 15.38400 12.93470 7.047330 2.511330 1.980330 1.075330 1.374050 1.694590 1.626000 1.636020 1.504840 1.223020 1.042380 0.946462 1.029820 1.355810 1.856240 2.265090 2.246500 1.855310 1.439440 1.172760 0.996367 0.916024 1.018830 1.427500 2.194540 3.073130 3.553210 3.608490 3.611200 3.618390 3.539590 3.569140 3.965020 5.016830 7.001660 10.06240 14.06080 18.60220 23.22020 27.71010 31.94930 35.79090 39.07120 41.54720 43.23730 
53 "B17" 42.91430 24.73430 24.20200 16.69400 13.10070 4.778000 3.614020 4.363810 4.713170 5.559170 5.905320 5.284100 4.690300 4.353560 4.757200 6.007630 7.805090 9.480790 10.21200 9.825070 8.976220 8.203670 7.578600 7.380040 8.195960 10.41750 14.04680 18.53400 22.43970 24.86590 26.28750 27.01780 27.29910 27.73020 28.85220 31.03540 34.44420 38.73860 43.29730 47.59530 51.31340 54.43490 57.05630 59.22920 60.90490 62.09040 62.68790 
